X:245
T:Irish Reel II
B:Kerr's Merry Melodies, Bk.2, p27
Z:Nigel Gatherer
M:4/4
L:1/8
K:Em
dc|BE (3EEE BEGA|BcdB ADFA|BE (3EEE GEGA|Be^df ge=dc|
BE (3EEE BEGA|BcdB ADFA|BE (3EEE GEGA|Be^df ge e2|]
Beef gfeg|fede fafd|Beef gfe=c|BAGF GE E2|
Beef gfeg|fede fagf|e^def gfe=d|BAGF E2|]
<end>
<start>
